web/assets/img/functions/520_15.svg

<svg id="vector" xmlns="http://www.w3.org/2000/svg" width="512" height="512" viewBox="0 0 512 512">
    <path fill="#000000"
          d="M240,60V160H60V60H240ZM250,40H50C47.35,40 44.8,41.05 42.93,42.93C41.05,44.8 40,47.35 40,50V170C40,172.65 41.05,175.2 42.93,177.07C44.8,178.95 47.35,180 50,180H250C252.65,180 255.2,178.95 257.07,177.07C258.95,175.2 260,172.65 260,170V50C260,47.35 258.95,44.8 257.07,42.93C255.2,41.05 252.65,40 250,40Z"
          id="path_0"/>
    <path fill="#00D151"
          d="M178.28,365.28C174.34,365.29 170.44,364.52 166.8,363.01C163.16,361.51 159.85,359.29 157.07,356.5L100.5,299.93C94.87,294.3 91.71,286.67 91.71,278.71C91.71,270.76 94.87,263.13 100.5,257.5C106.13,251.87 113.76,248.71 121.71,248.71C129.67,248.71 137.3,251.87 142.93,257.5L199.5,314.07C203.7,318.27 206.55,323.61 207.71,329.43C208.87,335.25 208.27,341.28 206,346.77C203.73,352.25 199.88,356.93 194.95,360.23C190.01,363.52 184.21,365.28 178.28,365.28ZM121.72,268.72C119.74,268.72 117.81,269.3 116.16,270.4C114.52,271.5 113.23,273.06 112.48,274.89C111.72,276.72 111.52,278.73 111.9,280.67C112.29,282.61 113.24,284.39 114.64,285.79L171.21,342.36C173.09,344.24 175.63,345.29 178.29,345.29C180.94,345.29 183.48,344.24 185.36,342.36C187.24,340.48 188.29,337.94 188.29,335.29C188.29,332.63 187.24,330.09 185.36,328.21L128.79,271.64C126.91,269.77 124.37,268.72 121.72,268.72Z"
          id="path_1"/>
    <path fill="#000000"
          d="M150,226C165.82,226 181.29,230.69 194.45,239.48C207.6,248.27 217.85,260.77 223.91,275.39C229.96,290 231.55,306.09 228.46,321.61C225.38,337.13 217.76,351.38 206.57,362.57C195.38,373.76 181.13,381.38 165.61,384.46C150.09,387.55 134,385.96 119.39,379.91C104.77,373.86 92.27,363.6 83.48,350.45C74.69,337.29 70,321.82 70,306C70.02,284.79 78.46,264.46 93.46,249.46C108.46,234.46 128.79,226.02 150,226ZM150,206C130.22,206 110.89,211.87 94.44,222.85C78,233.84 65.18,249.46 57.61,267.73C50.04,286 48.06,306.11 51.92,325.51C55.78,344.91 65.3,362.73 79.29,376.71C93.27,390.7 111.09,400.22 130.49,404.08C149.89,407.94 170,405.96 188.27,398.39C206.54,390.82 222.16,378 233.15,361.56C244.13,345.11 250,325.78 250,306C250,279.48 239.46,254.04 220.71,235.29C201.96,216.54 176.52,206 150,206Z"
          id="path_2"/>
    <path fill="#000000"
          d="M485,159H477V118C477,115.35 475.95,112.8 474.07,110.93C472.2,109.05 469.65,108 467,108C464.35,108 461.8,109.05 459.93,110.93C458.05,112.8 457,115.35 457,118V159H449C446.35,159 443.8,160.05 441.93,161.93C440.05,163.8 439,166.35 439,169V349C439,351.65 440.05,354.2 441.93,356.07C443.8,357.95 446.35,359 449,359H458V386C457.98,399.26 452.71,411.96 443.34,421.34C433.96,430.71 421.26,435.98 408,436H350C356.66,429.49 361.95,421.71 365.55,413.12C369.16,404.54 371.01,395.31 371,386V313H378C380.65,313 383.2,311.95 385.07,310.07C386.95,308.2 388,305.65 388,303V123C388,120.35 386.95,117.8 385.07,115.93C383.2,114.05 380.65,113 378,113H370V72C370,69.35 368.95,66.8 367.07,64.93C365.2,63.05 362.65,62 360,62C357.35,62 354.8,63.05 352.93,64.93C351.05,66.8 350,69.35 350,72V113H342C339.35,113 336.8,114.05 334.93,115.93C333.05,117.8 332,120.35 332,123V303C332,305.65 333.05,308.2 334.93,310.07C336.8,311.95 339.35,313 342,313H351V386C350.98,399.26 345.71,411.96 336.34,421.34C326.96,430.71 314.26,435.98 301,436H300V30C300,22.04 296.84,14.41 291.21,8.79C285.59,3.16 277.96,0 270,0L30,0C22.04,0 14.41,3.16 8.79,8.79C3.16,14.41 0,22.04 0,30L0,482C0,489.96 3.16,497.59 8.79,503.21C14.41,508.84 22.04,512 30,512H270C277.96,512 285.59,508.84 291.21,503.21C296.84,497.59 300,489.96 300,482V456H408C426.56,455.98 444.35,448.6 457.47,435.47C470.6,422.35 477.98,404.56 478,386V359H485C487.65,359 490.2,357.95 492.07,356.07C493.95,354.2 495,351.65 495,349V169C495,166.35 493.95,163.8 492.07,161.93C490.2,160.05 487.65,159 485,159ZM352,133H368V293H352V133ZM280,436H243.28C241.21,430.15 237.38,425.09 232.32,421.51C227.25,417.93 221.2,416.01 215,416.01C208.8,416.01 202.75,417.93 197.68,421.51C192.62,425.09 188.79,430.15 186.72,436H114.28C111.92,429.33 107.28,423.7 101.18,420.12C95.07,416.54 87.9,415.23 80.92,416.43C73.95,417.63 67.62,421.25 63.06,426.66C58.5,432.07 56,438.92 56,446C56,453.08 58.5,459.93 63.06,465.34C67.62,470.75 73.95,474.37 80.92,475.57C87.9,476.77 95.07,475.46 101.18,471.88C107.28,468.3 111.92,462.67 114.28,456H186.72C188.79,461.85 192.62,466.91 197.68,470.49C202.75,474.07 208.8,475.99 215,475.99C221.2,475.99 227.25,474.07 232.32,470.49C237.38,466.91 241.21,461.85 243.28,456H280V482C280,484.65 278.95,487.2 277.07,489.07C275.2,490.95 272.65,492 270,492H30C27.35,492 24.8,490.95 22.93,489.07C21.05,487.2 20,484.65 20,482V30C20,27.35 21.05,24.8 22.93,22.93C24.8,21.05 27.35,20 30,20H270C272.65,20 275.2,21.05 277.07,22.93C278.95,24.8 280,27.35 280,30V436ZM225,446C225,447.98 224.41,449.91 223.32,451.56C222.22,453.2 220.65,454.48 218.83,455.24C217,456 214.99,456.19 213.05,455.81C211.11,455.42 209.33,454.47 207.93,453.07C206.53,451.67 205.58,449.89 205.19,447.95C204.81,446.01 205,444 205.76,442.17C206.52,440.35 207.8,438.78 209.44,437.68C211.09,436.59 213.02,436 215,436C217.65,436 220.2,437.05 222.07,438.93C223.95,440.8 225,443.35 225,446ZM96,446C96,447.98 95.41,449.91 94.31,451.56C93.22,453.2 91.65,454.48 89.83,455.24C88,456 85.99,456.19 84.05,455.81C82.11,455.42 80.33,454.47 78.93,453.07C77.53,451.67 76.58,449.89 76.19,447.95C75.81,446.01 76,444 76.76,442.17C77.52,440.35 78.8,438.78 80.44,437.68C82.09,436.59 84.02,436 86,436C87.31,436 88.61,436.26 89.83,436.76C91.04,437.26 92.14,438 93.07,438.93C94,439.86 94.74,440.96 95.24,442.17C95.74,443.39 96,444.69 96,446ZM475,339H459V179H475V339Z"
          id="path_3"/>
    <path fill="#00D151"
          d="M390,178.8H330C327.35,178.8 324.8,177.75 322.93,175.87C321.05,174 320,171.45 320,168.8C320,166.15 321.05,163.6 322.93,161.73C324.8,159.85 327.35,158.8 330,158.8H390C392.65,158.8 395.2,159.85 397.07,161.73C398.95,163.6 400,166.15 400,168.8C400,171.45 398.95,174 397.07,175.87C395.2,177.75 392.65,178.8 390,178.8Z"
          id="path_4"/>
    <path fill="#00D151"
          d="M497,224.8H437C434.35,224.8 431.8,223.75 429.93,221.87C428.05,220 427,217.45 427,214.8C427,212.15 428.05,209.6 429.93,207.73C431.8,205.85 434.35,204.8 437,204.8H497C499.65,204.8 502.2,205.85 504.07,207.73C505.95,209.6 507,212.15 507,214.8C507,217.45 505.95,220 504.07,221.87C502.2,223.75 499.65,224.8 497,224.8Z"
          id="path_5"/>
</svg>

<?xml version="1.0" encoding="utf-8"?>
<!-- Generator: Adobe Illustrator 28.2.0, SVG Export Plug-In . SVG Version: 6.00 Build 0)  -->
<svg version="1.1" id="vector" xmlns="http://www.w3.org/2000/svg" xmlns:xlink="http://www.w3.org/1999/xlink" x="0px" y="0px"
	 viewBox="0 0 512 512" style="enable-background:new 0 0 512 512;" xml:space="preserve">
<style type="text/css">
	.st0{fill:#33B0DF;}
</style>
<path id="path_0" d="M240,60v100H60V60H240z M250,40H50c-2.7,0-5.2,1-7.1,2.9C41,44.8,40,47.3,40,50v120c0,2.6,1,5.2,2.9,7.1
	c1.9,1.9,4.4,2.9,7.1,2.9h200c2.6,0,5.2-1.1,7.1-2.9c1.9-1.9,2.9-4.4,2.9-7.1V50c0-2.7-1-5.2-2.9-7.1C255.2,41,252.6,40,250,40z"/>
<path id="path_1" class="st0" d="M178.3,365.3c-3.9,0-7.8-0.8-11.5-2.3c-3.6-1.5-6.9-3.7-9.7-6.5l-56.6-56.6
	c-5.6-5.6-8.8-13.3-8.8-21.2c0-7.9,3.2-15.6,8.8-21.2s13.3-8.8,21.2-8.8c8,0,15.6,3.2,21.2,8.8l56.6,56.6c4.2,4.2,7.1,9.5,8.2,15.4
	c1.2,5.8,0.6,11.9-1.7,17.3c-2.3,5.5-6.1,10.2-11.1,13.5C190,363.5,184.2,365.3,178.3,365.3z M121.7,268.7c-2,0-3.9,0.6-5.6,1.7
	c-1.6,1.1-2.9,2.7-3.7,4.5c-0.8,1.8-1,3.8-0.6,5.8c0.4,1.9,1.3,3.7,2.7,5.1l56.6,56.6c1.9,1.9,4.4,2.9,7.1,2.9
	c2.7,0,5.2-1.1,7.1-2.9c1.9-1.9,2.9-4.4,2.9-7.1c0-2.7-1-5.2-2.9-7.1l-56.6-56.6C126.9,269.8,124.4,268.7,121.7,268.7z"/>
<path id="path_2" d="M150,226c15.8,0,31.3,4.7,44.4,13.5c13.2,8.8,23.4,21.3,29.5,35.9c6.1,14.6,7.6,30.7,4.6,46.2
	c-3.1,15.5-10.7,29.8-21.9,41c-11.2,11.2-25.4,18.8-41,21.9c-15.5,3.1-31.6,1.5-46.2-4.5c-14.6-6.1-27.1-16.3-35.9-29.5
	C74.7,337.3,70,321.8,70,306c0-21.2,8.5-41.5,23.5-56.5C108.5,234.5,128.8,226,150,226z M150,206c-19.8,0-39.1,5.9-55.6,16.9
	c-16.4,11-29.3,26.6-36.8,44.9s-9.5,38.4-5.7,57.8c3.9,19.4,13.4,37.2,27.4,51.2c14,14,31.8,23.5,51.2,27.4
	c19.4,3.9,39.5,1.9,57.8-5.7c18.3-7.6,33.9-20.4,44.9-36.8c11-16.5,16.9-35.8,16.9-55.6c0-26.5-10.5-52-29.3-70.7S176.5,206,150,206
	z"/>
<path id="path_3" d="M485,159h-8v-41c0-2.7-1-5.2-2.9-7.1c-1.9-1.9-4.4-2.9-7.1-2.9s-5.2,1.1-7.1,2.9c-1.9,1.9-2.9,4.4-2.9,7.1v41
	h-8c-2.6,0-5.2,1.1-7.1,2.9c-1.9,1.9-2.9,4.4-2.9,7.1v180c0,2.6,1,5.2,2.9,7.1c1.9,1.9,4.4,2.9,7.1,2.9h9v27
	c0,13.3-5.3,26-14.7,35.3C434,430.7,421.3,436,408,436h-58c6.7-6.5,12-14.3,15.5-22.9c3.6-8.6,5.5-17.8,5.5-27.1v-73h7
	c2.6,0,5.2-1,7.1-2.9c1.9-1.9,2.9-4.4,2.9-7.1V123c0-2.7-1-5.2-2.9-7.1c-1.9-1.9-4.4-2.9-7.1-2.9h-8V72c0-2.7-1-5.2-2.9-7.1
	c-1.9-1.9-4.4-2.9-7.1-2.9s-5.2,1-7.1,2.9c-1.9,1.9-2.9,4.4-2.9,7.1v41h-8c-2.6,0-5.2,1.1-7.1,2.9c-1.9,1.9-2.9,4.4-2.9,7.1v180
	c0,2.6,1,5.2,2.9,7.1c1.9,1.9,4.4,2.9,7.1,2.9h9v73c0,13.3-5.3,26-14.7,35.3C327,430.7,314.3,436,301,436h-1V30
	c0-8-3.2-15.6-8.8-21.2C285.6,3.2,278,0,270,0H30C22,0,14.4,3.2,8.8,8.8C3.2,14.4,0,22,0,30v452c0,8,3.2,15.6,8.8,21.2
	C14.4,508.8,22,512,30,512h240c8,0,15.6-3.2,21.2-8.8c5.6-5.6,8.8-13.2,8.8-21.2v-26h108c18.6,0,36.4-7.4,49.5-20.5
	c13.1-13.1,20.5-30.9,20.5-49.5v-27h7c2.6,0,5.2-1,7.1-2.9c1.9-1.9,2.9-4.4,2.9-7.1V169c0-2.6-1-5.2-2.9-7.1
	C490.2,160.1,487.6,159,485,159z M352,133h16v160h-16V133z M280,436h-36.7c-2.1-5.9-5.9-10.9-11-14.5c-5.1-3.6-11.1-5.5-17.3-5.5
	s-12.2,1.9-17.3,5.5c-5.1,3.6-8.9,8.6-11,14.5h-72.4c-2.4-6.7-7-12.3-13.1-15.9c-6.1-3.6-13.3-4.9-20.3-3.7
	c-7,1.2-13.3,4.8-17.9,10.2S56,438.9,56,446s2.5,13.9,7.1,19.3s10.9,9,17.9,10.2c7,1.2,14.2-0.1,20.3-3.7
	c6.1-3.6,10.7-9.2,13.1-15.9h72.4c2.1,5.9,5.9,10.9,11,14.5c5.1,3.6,11.1,5.5,17.3,5.5s12.2-1.9,17.3-5.5c5.1-3.6,8.9-8.6,11-14.5
	H280v26c0,2.6-1,5.2-2.9,7.1c-1.9,1.9-4.4,2.9-7.1,2.9H30c-2.6,0-5.2-1-7.1-2.9c-1.9-1.9-2.9-4.4-2.9-7.1V30c0-2.6,1-5.2,2.9-7.1
	C24.8,21,27.4,20,30,20h240c2.6,0,5.2,1,7.1,2.9c1.9,1.9,2.9,4.4,2.9,7.1V436z M225,446c0,2-0.6,3.9-1.7,5.6
	c-1.1,1.6-2.7,2.9-4.5,3.7c-1.8,0.8-3.8,1-5.8,0.6c-1.9-0.4-3.7-1.3-5.1-2.7c-1.4-1.4-2.3-3.2-2.7-5.1c-0.4-1.9-0.2-4,0.6-5.8
	c0.8-1.8,2-3.4,3.7-4.5c1.6-1.1,3.6-1.7,5.6-1.7c2.6,0,5.2,1,7.1,2.9C223.9,440.8,225,443.4,225,446z M96,446c0,2-0.6,3.9-1.7,5.6
	c-1.1,1.6-2.7,2.9-4.5,3.7c-1.8,0.8-3.8,1-5.8,0.6c-1.9-0.4-3.7-1.3-5.1-2.7s-2.3-3.2-2.7-5.1c-0.4-1.9-0.2-4,0.6-5.8
	c0.8-1.8,2-3.4,3.7-4.5c1.6-1.1,3.6-1.7,5.6-1.7c1.3,0,2.6,0.3,3.8,0.8c1.2,0.5,2.3,1.2,3.2,2.2s1.7,2,2.2,3.2
	C95.7,443.4,96,444.7,96,446z M475,339h-16V179h16V339z"/>
<path id="path_4" class="st0" d="M390,178.8h-60c-2.6,0-5.2-1.1-7.1-2.9c-1.9-1.9-2.9-4.4-2.9-7.1c0-2.7,1-5.2,2.9-7.1
	c1.9-1.9,4.4-2.9,7.1-2.9h60c2.6,0,5.2,1.1,7.1,2.9c1.9,1.9,2.9,4.4,2.9,7.1c0,2.6-1,5.2-2.9,7.1C395.2,177.8,392.6,178.8,390,178.8
	z"/>
<path id="path_5" class="st0" d="M497,224.8h-60c-2.6,0-5.2-1.1-7.1-2.9c-1.9-1.9-2.9-4.4-2.9-7.1c0-2.7,1-5.2,2.9-7.1
	c1.9-1.9,4.4-2.9,7.1-2.9h60c2.6,0,5.2,1.1,7.1,2.9c1.9,1.9,2.9,4.4,2.9,7.1c0,2.6-1,5.2-2.9,7.1C502.2,223.8,499.6,224.8,497,224.8
	z"/>
</svg>
